!!!COM: Music21
!!!OTL: strathspey_Harveys
!!!OMV: strathspey_Harveys
**kern
*clefG2
*k[f#]
*M4/4
=1
8B
=
8.cL
16AJk
16ALL
16AJ
8AJ
8.aL
16gJk
8.eL
16aJk
=
8.gL
16dJk
16eKL
8.gJ
16dKL
8.gJ
8.dL
16BJk
=
8.cL
16AJk
16ALL
16AJ
8AJ
8.aL
16gJk
8.eL
16aJk
!!linebreak:original
=
8.gL
16eJk
16f#KL
8.dJ
4e
8.dL
16BJk
=
8.cL
16AJk
16ALL
16AJ
8AJ
8.aL
16gJk
8.eL
16aJk
=
8.gL
16dJk
16eKL
8.gJ
16dKL
8.gJ
8.dL
16BJk
!!linebreak:original
=
12cL
12B
12AJ
12cL
12d
12eJ
12dL
12c
12BJ
12dL
12e
12fnJ
=
16eKL
8.cJ
8.dL
16BJk
8.e
16A
8A
8ryy
=||
8b
2..ryy
=
12ccL
12b
12aJ
12aL
12aa
12ggJ
8.aaL
16eeJk
16eeKL
8.aaJ
!!linebreak:original
=
8.ggL
16ddJk
16eeKL
8.ggJ
16ddKL
8.ggJ
8.ddL
16bJk
=
12ccL
12b
12aJ
12aL
12aa
12ggJ
8.aaL
16eeJk
16eeKL
8.aaJ
=
8.ggL
16eeJk
16ff#KL
8.ddJ
4ee
8.ddL
16bJk
=
12ccL
12b
12aJ
12aL
12aa
12ggJ
8.aaL
16eeJk
16eeKL
8.aaJ
!!linebreak:original
=
8.ggL
16ddJk
16eeKL
8.ggJ
16ddKL
8.ggJ
8.ddL
16bJk
=
12ccL
12b
12aJ
12ccL
12dd
12eeJ
12ddL
12cc
12bJ
12ddL
12ee
12ffnJ
=
16eeKL
8.ccJ
8.ddL
16bJk
8.ee
16a
8a
8ryy
=||
*-
